X:1
T:Title
%%score { 1 | 2 }
L:1/8
Q:1/4=106
M:4/4
K:Eb
V:1 treble nm="Grand Piano"
V:2 bass 
V:1
 E>E E>E E2 E2 | [DF]>[DF] [DF]>[DF] [DF]4 | [DF]>[DF] [DF]>[DF] [DF]2 [DF]2 | G>F G>[FA] [GB]4 | %4
w: Wm.~B.~Bradbury * * * * *||||
 [GB]>[GB] [GB]>[GB] [GB]2 G2 | c>=B c>[EBd] [Ece]4 | [Ece]2 [EBd]>[EAc] .[EGB]2 .[B,EG]2 | %7
w: |||
 [B,GB]2 [B,FA]>[B,DF] [B,EG]2 z2 | [Ece]2 [EBd]>[EAc] .[EGB]2 .[B,EG]2 | %9
w: ||
 [B,GB]2 [B,FA]>[A,DF] [G,E]2 z2 |] %10
w: |
V:2
 [E,G,]>[E,G,] [E,G,]>[E,G,] [E,G,]2 [E,G,]2 | [B,,B,]>[B,,B,] [B,,B,]>[B,,B,] [B,,B,]4 | %2
 [B,,B,]>[B,,B,] [B,,B,]>[B,,B,] [B,,B,]2 [B,,B,]2 | [E,B,E]>[E,B,D] [E,B,E]>[E,B,] [E,B,]4 | %4
 [E,E]>[E,E] [E,E]>[E,E] [E,E]2 [E,E]2 | [A,E]>[A,EG] [A,EA]>A, A,4 | A,2 A,>A, .E,2 .E,2 | %7
 B,,2 B,,>B,, E,2 z2 | A,2 A,>A, .E,2 .E,2 | B,,2 B,,>B,, E,2 z2 |] %10

